X: 481
%
U:~=!turn!
T: Mrs. MacDouwal Grant
C:
O:Scotland
B:Keith Norman MacDonald : "The Skye collection of the best reels & strathspeys extant" : 1887
Z:Ralph Palmer
R:Strathspey
M:C
L:1/8
K:F
B | (A/B/c) c>~c Bd d2 | (A/B/)c/B/ A<F E<G~G>B | (A/B/c) c<~c (B/c/)d/e/ (f>d) | c>A (c/B/)A/G/ F2 F :|
f | (a/g/).f/.g/ (a>c) f<c ~f2 | (a/g/).f/.g/ (a<f) e<g ~g2 | (a/g/).f/.g/ (a<e) f<cf>d | c>A (c/B/)A/G/ F2 Ff |
(a/g/).f/g/ (a<e) fc ~f2 | (a/g/).f/.g/ a<f eg ~g2 | {fg}a>fd<f c<Af>d | c>A (c/B/)A/G/ F2 F |]


